digitransit-component/packages/digitransit-component-icon/src/assets/icon-route.svg

<svg xmlns="http://www.w3.org/2000/svg" viewBox="0 0 32 32">
 <title>icon-route</title>
 <path fill="#888" fill-rule="nonzero" d="M26.28 14.96s3.32-4.8 3.32-6.64S28.12 5 26.28 5s-3.32 1.48-3.32 3.32 3.32 6.64 3.32 6.64m0-5.2c-.8 0-1.48-.64-1.48-1.48 0-.8.68-1.44 1.48-1.44s1.48.64 1.48 1.44c0 .84-.68 1.48-1.48 1.48M8.64 25.24s5.68-8.2 5.68-11.32-2.52-5.64-5.68-5.64C5.52 8.28 3 10.8 3 13.92c0 2.619 3.973 8.815 5.25 10.74l.148.222c.154.23.242.358.242.358m0-8.84c-1.36 0-2.52-1.12-2.52-2.48 0-1.4 1.16-2.52 2.52-2.52 1.4 0 2.52 1.12 2.52 2.52 0 1.36-1.12 2.48-2.52 2.48m15.24.08.8-1.04c-.8-.68-1.88-.96-2.96-.84-.2 0-.4.04-.56.08l.28 1.32c.12-.04.28-.08.4-.08.76-.08 1.4.04 2.04.56m-6.08 2.8 1.32-.12c-.08-.84.12-1.68.76-2.28l-.96-.88c-.96.88-1.28 2.12-1.12 3.28m1.04 4.88c.36-.88.52-1.84.44-2.8l-1.32.12c.04.76-.04 1.48-.32 2.16zm-4.08 3.52c1.12-.28 2.16-.88 2.92-1.72l-.96-.88c-.6.64-1.4 1.12-2.28 1.32zm-2.16.16.16-1.32c-.76-.12-1.52-.4-2.16-.88l-.8 1.04c.84.64 1.8 1.04 2.8 1.16"/>
</svg>

<?xml version="1.0" encoding="UTF-8"?>
<svg viewBox="0 0 32 32" version="1.1" xmlns="http://www.w3.org/2000/svg" xmlns:xlink="http://www.w3.org/1999/xlink">
    <title>icon-route</title>
    <g stroke="none" stroke-width="1" fill="none" fill-rule="evenodd">
        <path d="M26.28,14.96 C26.28,14.96 29.6,10.16 29.6,8.32 C29.6,6.48 28.12,5 26.28,5 C24.44,5 22.96,6.48 22.96,8.32 C22.96,10.16 26.28,14.96 26.28,14.96 Z M26.28,9.76 C25.48,9.76 24.8,9.12 24.8,8.28 C24.8,7.48 25.48,6.84 26.28,6.84 C27.08,6.84 27.76,7.48 27.76,8.28 C27.76,9.12 27.08,9.76 26.28,9.76 Z M8.64,25.24 C8.64,25.24 14.32,17.04 14.32,13.92 C14.32,10.8 11.8,8.28 8.64,8.28 C5.52,8.28 3,10.8 3,13.92 C3,16.5385714 6.97281888,22.7354974 8.24979637,24.6597312 L8.39765625,24.8815625 C8.551875,25.111875 8.64,25.24 8.64,25.24 Z M8.64,16.4 C7.28,16.4 6.12,15.28 6.12,13.92 C6.12,12.52 7.28,11.4 8.64,11.4 C10.04,11.4 11.16,12.52 11.16,13.92 C11.16,15.28 10.04,16.4 8.64,16.4 Z M23.88,16.48 L24.68,15.44 C23.88,14.76 22.8,14.48 21.72,14.6 C21.52,14.6 21.32,14.64 21.16,14.68 L21.44,16 C21.56,15.96 21.72,15.92 21.84,15.92 C22.6,15.84 23.24,15.96 23.88,16.48 Z M17.8,19.28 L19.12,19.16 C19.04,18.32 19.24,17.48 19.88,16.88 L18.92,16 C17.96,16.88 17.64,18.12 17.8,19.28 Z M18.84,24.16 C19.2,23.28 19.36,22.32 19.28,21.36 L17.96,21.48 C18,22.24 17.92,22.96 17.64,23.64 L18.84,24.16 Z M14.76,27.68 C15.88,27.4 16.92,26.8 17.68,25.96 L16.72,25.08 C16.12,25.72 15.32,26.2 14.44,26.4 L14.76,27.68 Z M12.6,27.84 L12.76,26.52 C12,26.4 11.24,26.12 10.6,25.64 L9.8,26.68 C10.64,27.32 11.6,27.72 12.6,27.84 Z" id="h" fill="#888888" fill-rule="nonzero"></path>
    </g>
</svg>
